X: 10886
T: Drops Of Brandy, The
R: slip jig
M: 9/8
K: Dmajor
|:ded BGB BGB|ded BGB c2A|ded BGB BGB|cBc AFA cBA:|
GBd vgdB vgdB|GBd vgdB c2A|GBd vgdB vgdB|cBc AFA cBA|
GBd vgdB vgdB|GBd vgdB c2A|GBd ~g3 {a}gdB|cBc AFA cBA:|

